X: 26
M: 6/8
L: 1/8
K: F
c |\
"F"FG_A "C7"=AB=B | "F"c2A "A/F7"G2F | "Bb"BAB "F7"c2^c | "Bb"d3 "D/Bb"d2d |\
"C7"c=Bc "G7"d2^d | "C"e2d "E/C"c2e | "F"fed "E/C"edc | "Dm"dcB "C7"cAG |
"F"FG_A "C7"=AB=B | "F"c2A "A/F7"G2F | "Bb"BAB "F7"c2^c | "Bb"d3 "D/Bb"d2d |\
"C7"c=Bc "G7"d2^d | "C"e2d "E/C"c2e | "Bb"fed "C7"cde | "F"f3 f2g ||
"F"agf "E/C"gfe | "Cm"fed "C/F7"edc | "Bb"dcB "A/F"cBA | "Bb"BAG "B/G7"AGF |\
"C"GFE "G7"FED | "C"EDC "G7"DCB, | "C"CDC "E/C7"FG_A | "F"A3 "C7"f2g |
"F"agf "E/C"gfe | "Cm"fed "C/F7"edc | "Bb"dcB "A/F"cBA | "Bb"BAG "B/G7"AGF |\
"C"GFE "G7"FED | "C"EDC "G7"DCB, | "C"CDC "E/C7"EFG | "F"F3 F3 |]


